X:1
%
T:Minstrel of Gordon Castle, The
M:C
L:1/8
R:Air
Q:"Andante Express."
S:John Rook music manuscript collection (Waverton, Cumbria, 1840, p. 204)
Z:AK/Fiddler’s Companion
K:Emin
B>A|G2 F>G E2 e>f|gfe^d e2 =dc|cBAG A2 Bd|e2 de B2 ga|
bage dege|d<BAG A2 g>f|{f}e2 dc BeBA|G2F2E2||
g>a|b2 ag g>ab G|Bded cBAG|egfa gaba|gfe^d e2 e>f/4g/4|
B2 Bd edBg|d<BAG A2 B>d|eBge Be d/c/B/A/|G2F2E2||

